src/assets/svg/icons/fa/nuevos/classic/light/sliders-up classic light.svg

<svg xmlns="http://www.w3.org/2000/svg" viewBox="0 0 512 512"><!--! Font Awesome Pro 6.4.0 by @fontawesome - https://fontawesome.com License - https://fontawesome.com/license (Commercial License) Copyright 2023 Fonticons, Inc. --><path d="M96 0c8.8 0 16 7.2 16 16V81.6c36.5 7.4 64 39.7 64 78.4s-27.5 71-64 78.4V496c0 8.8-7.2 16-16 16s-16-7.2-16-16V238.4C43.5 231 16 198.7 16 160s27.5-71 64-78.4V16C80 7.2 87.2 0 96 0zm0 208a48 48 0 1 0 0-96 48 48 0 1 0 0 96zM256 400a48 48 0 1 0 0-96 48 48 0 1 0 0 96zm80-48c0 38.7-27.5 71-64 78.4V496c0 8.8-7.2 16-16 16s-16-7.2-16-16V430.4c-36.5-7.4-64-39.7-64-78.4s27.5-71 64-78.4V16c0-8.8 7.2-16 16-16s16 7.2 16 16V273.6c36.5 7.4 64 39.7 64 78.4zM464 192a48 48 0 1 0 -96 0 48 48 0 1 0 96 0zm-32 78.4V496c0 8.8-7.2 16-16 16s-16-7.2-16-16V270.4c-36.5-7.4-64-39.7-64-78.4s27.5-71 64-78.4V16c0-8.8 7.2-16 16-16s16 7.2 16 16v97.6c36.5 7.4 64 39.7 64 78.4s-27.5 71-64 78.4z"/></svg>

<svg xmlns="http://www.w3.org/2000/svg" viewBox="0 0 512 512"><path d="M96 0C104.8 0 112 7.164 112 16V81.6C148.5 89.01 176 121.3 176 160C176 198.7 148.5 230.1 112 238.4V496C112 504.8 104.8 512 96 512C87.16 512 80 504.8 80 496V238.4C43.48 230.1 16 198.7 16 160C16 121.3 43.48 89.01 80 81.6V16C80 7.164 87.16 0 96 0zM96 208C122.5 208 144 186.5 144 160C144 133.5 122.5 112 96 112C69.49 112 48 133.5 48 160C48 186.5 69.49 208 96 208zM336 352C336 390.7 308.5 422.1 272 430.4V496C272 504.8 264.8 512 256 512C247.2 512 240 504.8 240 496V430.4C203.5 422.1 176 390.7 176 352C176 313.3 203.5 281 240 273.6V16C240 7.164 247.2 0 256 0C264.8 0 272 7.164 272 16V273.6C308.5 281 336 313.3 336 352zM256 400C282.5 400 304 378.5 304 352C304 325.5 282.5 304 256 304C229.5 304 208 325.5 208 352C208 378.5 229.5 400 256 400zM432 496C432 504.8 424.8 512 416 512C407.2 512 400 504.8 400 496V270.4C363.5 262.1 336 230.7 336 192C336 153.3 363.5 121 400 113.6V16C400 7.164 407.2 0 416 0C424.8 0 432 7.164 432 16V113.6C468.5 121 496 153.3 496 192C496 230.7 468.5 262.1 432 270.4V496zM416 144C389.5 144 368 165.5 368 192C368 218.5 389.5 240 416 240C442.5 240 464 218.5 464 192C464 165.5 442.5 144 416 144z"/></svg>
